public/piece/Intl_Monochrome_2D/0RY.svg

<svg xmlns="http://www.w3.org/2000/svg" width="52.157" height="52.157"><g opacity=".99"><path d="M26.079 3.397L12.406 7.88 5.988 48.788h40.181L39.75 7.88z" opacity=".99" fill="#fee572" fill-opacity=".992" stroke="#000" stroke-width="1.048"/><g stroke-width=".578" fill="none" stroke="#fff"><path d="M26.89 15.186c-.37 1.554.945 3.209 2.92 3.732-1.42.95-1.893 1.896-1.893 1.896.636.02 2.264.401 2.844 1.37-.27.088-1.662.552-1.87 1.41M30.092 23.751c5.457-1.644 8.878.825 10.554 4.074m-8.739-2.407c5.88.205 4.28 6.973 2.814 10.627m.37-12.665c2.435 1.325 4.47 3.154 3.592 8.666m-7.258 3.444c-1.286.583-1.948 5.511-1.036 5.221m4.888-13.812c2.055 8.02-11.054 10.188-9.147 18.145m5.962-18.738c6.067 6.666-11.443 9.324-9.776 18.849m-2.148-25.107c1.456-1.965 2.746-4.13 5.147-4.962m-2.592 7.11c1.84-.223 3.679-.341 5.518-.074m-5.888-1.444c1.013-1.267 3.027-1.633 5-2.037"/></g><path d="M13.91 26.677c4.912.165 12.075 6.416 13.775 3.11" fill="none" stroke="red" stroke-width=".578"/><path d="M25.098 24.412c-3.646.937-4.638 7.105-7.698 9.636-.532-.266-.598-.861-.576-2.095l-2.043-1.1 3.3-.419-2.095-1.152 2.775-.47-1.152-1.624 2.252.366-.105-2.356.995-.524v-1.571l-.523-.786-.838.105.052.733-1.204.105-.105.89-.943-.314-.733.21.157 1.78-1.518-.052-.053 2.88c-.342-.28-.83-.559-1.728-.838-.278 1.641-.206 3.125-.21 4.766l-2.46-3.457c.194-.474.726-.432 1.099-1.518-.033-.759-.062-1.515-.367-2.41 1.849-.912 3.454-2.555 5.028-4.294l.052-3.613c.659-1.804 1.116-2.78 1.683-3.709.042 1.342.114 2.453.456 3.21 1.044-1.11.02-4.54 3.726-6.466-.93 2.078-2.665 4.256-1.518 6.075 4.125-5.114 8.418-9.025 13.51-7.227-5.025.412-8.741 3.319-7.873 6.461 3.158-3.528 7.03-2.71 8.272-2.105-3.919.405-5.521 1.907-4.692 4.128 4.437-1.275 7.834-1.081 9.897.995-2.485-.272-6.1-1.043-6.196.412 17.394 7.675-2.55 19.04-2.863 20.535-1.085 2.682-.47 3.7-.42 5.499-5.69 2.75-9.614 2.285-12.568.052-.57-8.029 6.557-10.848 10.123-12.527 3.907-1.839 6.314-8.962.584-9.042-.486 1.026-.764 2.575-.495 4.55-1.196-3.518-3.222-4.545-5.813-3.876" fill="red" stroke="red" stroke-width=".539"/><g stroke-width=".778" fill="none" stroke="#fee572" stroke-opacity=".992"><path d="M26.89 15.186c-.37 1.554.945 3.209 2.92 3.732-1.42.95-1.893 1.896-1.893 1.896.636.02 2.264.401 2.844 1.37-.27.088-1.662.552-1.87 1.41M30.092 23.751c5.457-1.644 8.878.825 10.554 4.074m-8.739-2.407c5.88.205 4.28 6.973 2.814 10.627"/><path d="M32.092 26.306c5.959 6.547-10.827 9.228-9.847 18.346.018.165.298 2.334.291 2.632M22.723 22.196c1.84-.223 3.679-.341 5.518-.074m-5.888-1.444c1.013-1.267 3.027-1.633 5-2.037"/></g><path d="M19.376 17.009l-1.605 1.23v1.873c.81-.452 1.187-.896 1.498-1.337.107-.66.23-1.337.107-1.766z" fill="#fee572" fill-opacity=".992" stroke="#fee572" stroke-width=".778" stroke-opacity=".992"/><path d="M13.91 26.677c4.912.165 12.075 6.416 13.775 3.11" fill="none" stroke="red" stroke-width=".599"/><path d="M29.986 30.742l2.002 1.254m-6.032 1.299c.712.919 1.235 1.686 2.359 1.678m-7.192 1.501c.548 1.411 1.973 1.53 3.61 1.655m-6.473 2.896c.595 2.594 2.426 2.386 4.201 2.183" fill="none" stroke="#fee572" stroke-width=".778" stroke-opacity=".992"/></g></svg>

<svg xmlns="http://www.w3.org/2000/svg" width="52.157" height="52.157"><g opacity=".99"><path d="M26.079 3.397L12.406 7.88 5.988 48.788h40.181L39.75 7.88z" opacity=".99" fill="#fee572" fill-opacity=".992" stroke="#000" stroke-width="1.04769"/><g stroke-width=".8" fill="none" stroke="#fff"><path d="M26.89 15.186c-.37 1.554.945 3.209 2.92 3.732-1.42.95-1.893 1.896-1.893 1.896.636.02 2.264.401 2.844 1.37-.27.088-1.662.552-1.87 1.41" stroke-width=".577686"/><path d="M30.092 23.751c5.457-1.644 8.878.825 10.554 4.074M31.907 25.418c5.88.205 4.28 6.973 2.814 10.627M35.091 23.38c2.435 1.325 4.47 3.154 3.592 8.666M31.425 35.49c-1.286.583-1.948 5.511-1.036 5.221M35.277 26.899c2.055 8.02-11.054 10.188-9.147 18.145M32.092 26.306c6.067 6.666-11.443 9.324-9.776 18.849M20.168 20.048c1.456-1.965 2.746-4.13 5.147-4.962M22.723 22.196c1.84-.223 3.679-.341 5.518-.074M22.353 20.678c1.013-1.267 3.027-1.633 5-2.037" stroke-width=".5776880000000001"/></g><path d="M13.91 26.677c4.912.165 12.075 6.416 13.775 3.11" fill="none" stroke="red" stroke-width=".5776880000000001"/><path d="M25.098 24.412c-3.646.937-4.638 7.105-7.698 9.636-.532-.266-.598-.861-.576-2.095l-2.043-1.1 3.3-.419-2.095-1.152 2.775-.47-1.152-1.624 2.252.366-.105-2.356.995-.524v-1.571l-.523-.786-.838.105.052.733-1.204.105-.105.89-.943-.314-.733.21.157 1.78-1.518-.052-.053 2.88c-.342-.28-.83-.559-1.728-.838-.278 1.641-.206 3.125-.21 4.766l-2.46-3.457c.194-.474.726-.432 1.099-1.518-.033-.759-.062-1.515-.367-2.41 1.849-.912 3.454-2.555 5.028-4.294l.052-3.613c.659-1.804 1.116-2.78 1.683-3.709.042 1.342.114 2.453.456 3.21 1.044-1.11.02-4.54 3.726-6.466-.93 2.078-2.665 4.256-1.518 6.075 4.125-5.114 8.418-9.025 13.51-7.227-5.025.412-8.741 3.319-7.873 6.461 3.158-3.528 7.03-2.71 8.272-2.105-3.919.405-5.521 1.907-4.692 4.128 4.437-1.275 7.834-1.081 9.897.995-2.485-.272-6.1-1.043-6.196.412 17.394 7.675-2.55 19.04-2.863 20.535-1.085 2.682-.47 3.7-.42 5.499-5.69 2.75-9.614 2.285-12.568.052-.57-8.029 6.557-10.848 10.123-12.527 3.907-1.839 6.314-8.962.584-9.042-.486 1.026-.764 2.575-.495 4.55-1.196-3.518-3.222-4.545-5.813-3.876" fill="red" stroke="red" stroke-width=".53869406"/><g stroke-width=".8"><path d="M26.89 15.186c-.37 1.554.945 3.209 2.92 3.732-1.42.95-1.893 1.896-1.893 1.896.636.02 2.264.401 2.844 1.37-.27.088-1.662.552-1.87 1.41" fill="none" stroke="#fee572" stroke-width=".7779504800000001" stroke-opacity=".992"/><g stroke="#fff"><path d="M30.092 23.751c5.457-1.644 8.878.825 10.554 4.074M31.907 25.418c5.88.205 4.28 6.973 2.814 10.627" fill="none" stroke="#fee572" stroke-width=".77771247" stroke-opacity=".992"/><path d="M32.092 26.306c5.959 6.547-10.827 9.228-9.847 18.346.018.165.298 2.334.291 2.632" fill="none" stroke="#fee572" stroke-width=".77771247" stroke-opacity=".992"/></g><path d="M22.723 22.196c1.84-.223 3.679-.341 5.518-.074M22.353 20.678c1.013-1.267 3.027-1.633 5-2.037" fill="none" stroke="#fee572" stroke-width=".77771247" stroke-opacity=".992"/></g><path d="M19.376 17.009l-1.605 1.23v1.873c.81-.452 1.187-.896 1.498-1.337.107-.66.23-1.337.107-1.766z" fill="#fee572" fill-opacity=".992" stroke="#fee572" stroke-width=".77771247" stroke-opacity=".992"/><path d="M13.91 26.677c4.912.165 12.075 6.416 13.775 3.11" fill="none" stroke="red" stroke-width=".59862919"/><path d="M29.986 30.742l2.002 1.254M25.956 33.295c.712.919 1.235 1.686 2.359 1.678M21.123 36.474c.548 1.411 1.973 1.53 3.61 1.655M18.26 41.025c.595 2.594 2.426 2.386 4.201 2.183" fill="none" stroke="#fee572" stroke-width=".7779963400000001" stroke-opacity=".992"/></g></svg>
